X:4
T:Counting Sheep
R:reel
C:Paul S. Cranford
O:Cape Breton Island
S:http://www.cranfordpub.com
D:currently unrecorded
B:currently unpublished in book form
Z:psc
H:                                                        copyrights Cranford Publications, SOCAN
L:1/8
Q:333
M:C|
K:A
F|EA,CE c2 BA|FAEC DB,B,A|EA,FA, EFAc|dfed cAAF|
EA,CE c2 BA|FAEC DB,B,A|EA,CE FGAc|dfBd cAA||
||g|a2 ec dBBG|AA,CA, DB,B,C|A,ECE FGAc|dfBd cAAg|
aAec dBBG|AA,CA, DB,B,C|A,2 AF EACE|DFEG  AA,A,|]
